styles/3/Numix/256x256/actions/default-add-folders-to-archive.svg

<svg xmlns="http://www.w3.org/2000/svg" xmlns:xlink="http://www.w3.org/1999/xlink" width="256px" height="256px" viewBox="0 0 256 256" version="1.1">
<g id="surface1">
<path style=" stroke:none;fill-rule:nonzero;fill:rgb(91.764706%,56.470588%,21.176471%);fill-opacity:1;" d="M 16 104 L 184 104 L 184 176 L 16 176 Z M 16 104 "/>
<path style=" stroke:none;fill-rule:nonzero;fill:rgb(91.764706%,56.470588%,21.176471%);fill-opacity:1;" d="M 32 112 C 32 104 32 96 42.179688 96 L 77.820312 96 C 88 96 88 104 88 112 Z M 32 112 "/>
<path style=" stroke:none;fill-rule:nonzero;fill:rgb(58.431373%,59.607843%,62.352941%);fill-opacity:1;" d="M 24 112 L 176 112 L 176 144.359375 L 24 144.359375 Z M 24 112 "/>
<path style=" stroke:none;fill-rule:nonzero;fill:rgb(84.705882%,84.705882%,85.490196%);fill-opacity:1;" d="M 40 120 L 168 120 L 168 210.664062 L 40 210.664062 Z M 40 120 "/>
<path style=" stroke:none;fill-rule:nonzero;fill:rgb(97.647059%,97.647059%,97.647059%);fill-opacity:1;" d="M 32 128 L 160 128 L 160 220.445312 L 32 220.445312 Z M 32 128 "/>
<path style=" stroke:none;fill-rule:nonzero;fill:rgb(94.901961%,73.333333%,39.215686%);fill-opacity:1;" d="M 0 136 L 200 136 L 184 240 L 16 240 Z M 0 136 "/>
<path style=" stroke:none;fill-rule:nonzero;fill:rgb(91.764706%,56.470588%,21.176471%);fill-opacity:1;" d="M 37.335938 112 C 37.335938 104 37.335938 96 47.03125 96 L 80.96875 96 C 90.664062 96 90.664062 104 90.664062 112 Z M 37.335938 112 "/>
<path style=" stroke:none;fill-rule:nonzero;fill:rgb(91.764706%,56.470588%,21.176471%);fill-opacity:1;" d="M 72 24 L 240 24 L 240 96 L 72 96 Z M 72 24 "/>
<path style=" stroke:none;fill-rule:nonzero;fill:rgb(91.764706%,56.470588%,21.176471%);fill-opacity:1;" d="M 88 32 C 88 24 88 16 98.179688 16 L 133.820312 16 C 144 16 144 24 144 32 Z M 88 32 "/>
<path style=" stroke:none;fill-rule:nonzero;fill:rgb(58.431373%,59.607843%,62.352941%);fill-opacity:1;" d="M 80 32 L 232 32 L 232 64.359375 L 80 64.359375 Z M 80 32 "/>
<path style=" stroke:none;fill-rule:nonzero;fill:rgb(84.705882%,84.705882%,85.490196%);fill-opacity:1;" d="M 96 40 L 224 40 L 224 130.664062 L 96 130.664062 Z M 96 40 "/>
<path style=" stroke:none;fill-rule:nonzero;fill:rgb(97.647059%,97.647059%,97.647059%);fill-opacity:1;" d="M 88 48 L 216 48 L 216 140.445312 L 88 140.445312 Z M 88 48 "/>
<path style=" stroke:none;fill-rule:nonzero;fill:rgb(0%,0%,0%);fill-opacity:0.101961;" d="M 42.25 96 C 35.632812 96 33.3125 99.4375 32.5 104 L 16 104 L 16 136 L 0 136 L 16 240 L 184 240 L 200 136 L 184 136 L 184 104 L 90.25 104 C 89.476562 99.4375 87.296875 96 81 96 Z M 42.25 96 "/>
<path style=" stroke:none;fill-rule:nonzero;fill:rgb(94.901961%,73.333333%,39.215686%);fill-opacity:1;" d="M 56 56 L 256 56 L 240 160 L 72 160 Z M 56 56 "/>
<path style=" stroke:none;fill-rule:nonzero;fill:rgb(52.156863%,60%,0%);fill-opacity:1;" d="M 240 168 L 200 168 L 200 128 L 160 128 L 160 168 L 120 168 L 120 208 L 160 208 L 160 248 L 200 248 L 200 208 L 240 208 Z M 240 168 "/>
</g>
</svg>

<?xml version="1.0" encoding="UTF-8" standalone="no"?>
<svg
   xmlns:dc="http://purl.org/dc/elements/1.1/"
   xmlns:cc="http://creativecommons.org/ns#"
   xmlns:rdf="http://www.w3.org/1999/02/22-rdf-syntax-ns#"
   xmlns:svg="http://www.w3.org/2000/svg"
   xmlns="http://www.w3.org/2000/svg"
   xmlns:sodipodi="http://sodipodi.sourceforge.net/DTD/sodipodi-0.dtd"
   xmlns:inkscape="http://www.inkscape.org/namespaces/inkscape"
   width="256px"
   height="256px"
   viewBox="0 0 256 256"
   version="1.1"
   id="svg2"
   inkscape:version="0.48.5 r10040"
   sodipodi:docname="blue-add-folders-to-archive.svg">
  <metadata
     id="metadata39">
    <rdf:RDF>
      <cc:Work
         rdf:about="">
        <dc:format>image/svg+xml</dc:format>
        <dc:type
           rdf:resource="http://purl.org/dc/dcmitype/StillImage" />
      </cc:Work>
    </rdf:RDF>
  </metadata>
  <defs
     id="defs37" />
  <sodipodi:namedview
     pagecolor="#ffffff"
     bordercolor="#666666"
     borderopacity="1"
     objecttolerance="10"
     gridtolerance="10"
     guidetolerance="10"
     inkscape:pageopacity="0"
     inkscape:pageshadow="2"
     inkscape:window-width="668"
     inkscape:window-height="480"
     id="namedview35"
     showgrid="false"
     inkscape:zoom="0.921875"
     inkscape:cx="102.82971"
     inkscape:cy="128.92382"
     inkscape:window-x="0"
     inkscape:window-y="0"
     inkscape:window-maximized="0"
     inkscape:current-layer="svg2" />
  <path
     inkscape:connector-curvature="0"
     id="path5"
     d="m 16,104 168,0 0,72 -168,0 z m 0,0"
     style="fill:#ea9036;fill-opacity:1;fill-rule:nonzero;stroke:none" />
  <path
     inkscape:connector-curvature="0"
     id="path7"
     d="m 32,112 c 0,-8 0,-16 10.179688,-16 l 35.640624,0 C 88,96 88,104 88,112 z m 0,0"
     style="fill:#ea9036;fill-opacity:1;fill-rule:nonzero;stroke:none" />
  <path
     inkscape:connector-curvature="0"
     id="path9"
     d="m 24,112 152,0 0,32.35937 -152,0 z m 0,0"
     style="fill:#94979e;fill-opacity:1;fill-rule:nonzero;stroke:none" />
  <path
     inkscape:connector-curvature="0"
     id="path11"
     d="m 40,120 128,0 0,90.66406 -128,0 z m 0,0"
     style="fill:#d7d7d9;fill-opacity:1;fill-rule:nonzero;stroke:none" />
  <path
     inkscape:connector-curvature="0"
     id="path13"
     d="m 32,128 128,0 0,92.44531 -128,0 z m 0,0"
     style="fill:#f8f8f8;fill-opacity:1;fill-rule:nonzero;stroke:none" />
  <path
     inkscape:connector-curvature="0"
     id="path15"
     d="m 0,136 200,0 -16,104 -168,0 z m 0,0"
     style="fill:#f2bb64;fill-opacity:1;fill-rule:nonzero;stroke:none" />
  <path
     inkscape:connector-curvature="0"
     id="path17"
     d="m 37.335938,112 c 0,-8 0,-16 9.695312,-16 l 33.9375,0 c 9.695312,0 9.695312,8 9.695312,16 z m 0,0"
     style="fill:#ea9036;fill-opacity:1;fill-rule:nonzero;stroke:none" />
  <path
     inkscape:connector-curvature="0"
     id="path29"
     d="m 42.25,96 c -6.617188,0 -8.9375,3.4375 -9.75,8 l -16.5,0 0,32 -16,0 16,104 168,0 16,-104 -16,0 0,-32 -93.75,0 C 89.476562,99.4375 87.296875,96 81,96 z m 0,0"
     style="fill:#000000;fill-opacity:0.10196102;fill-rule:nonzero;stroke:none" />
  <path
     inkscape:connector-curvature="0"
     id="path19"
     d="m 72,24 168,0 0,72 -168,0 z m 0,0"
     style="fill:#ea9036;fill-opacity:1;fill-rule:nonzero;stroke:none" />
  <path
     inkscape:connector-curvature="0"
     id="path21"
     d="m 88,32 c 0,-8 0,-16 10.179688,-16 l 35.640622,0 C 144,16 144,24 144,32 z m 0,0"
     style="fill:#ea9036;fill-opacity:1;fill-rule:nonzero;stroke:none" />
  <path
     inkscape:connector-curvature="0"
     id="path23"
     d="m 80,32 152,0 0,32.359375 -152,0 z m 0,0"
     style="fill:#94979e;fill-opacity:1;fill-rule:nonzero;stroke:none" />
  <path
     inkscape:connector-curvature="0"
     id="path25"
     d="m 96,40 128,0 0,90.66406 -128,0 z m 0,0"
     style="fill:#d7d7d9;fill-opacity:1;fill-rule:nonzero;stroke:none" />
  <path
     inkscape:connector-curvature="0"
     id="path27"
     d="m 88,48 128,0 0,92.44531 -128,0 z m 0,0"
     style="fill:#f8f8f8;fill-opacity:1;fill-rule:nonzero;stroke:none" />
  <path
     inkscape:connector-curvature="0"
     id="path31"
     d="m 56,56 200,0 -16,104 -168,0 z m 0,0"
     style="fill:#f2bb64;fill-opacity:1;fill-rule:nonzero;stroke:none" />
  <path
     inkscape:connector-curvature="0"
     id="path33"
     d="m 240,168 -40,0 0,-40 -40,0 0,40 -40,0 0,40 40,0 0,40 40,0 0,-40 40,0 z m 0,0"
     style="fill:#859900;fill-opacity:1;fill-rule:nonzero;stroke:none" />
</svg>
